X: 1
T:The Highland Brigade at Magersfontein  " "
M:3/4
L:1/8
Q:80
C:P/M John MacLellan.  Arr. Arch Ott
S:Retreat
K:HP
| {g}A3/2B/2{GdG}c2{GdG}ce|
{ag}a3/2g/2{fg}f2{g}e2|
{gef}e3/2c/2{g}A2{GAG}A{d}c|  !
{g}e3/2f/2{gcd}c2{e}B2|
{gef}e3/2c/2{g}A2{g}B{d}c|
{gef}ec{ag}a3/2g/2{fg}f2|  !
{g}f3/4g/4a3/4f/4{gef}e3/2f/2{gcd}c{e}A|
{g}B3/2c/2{G}A2{GAG}A2:|
{g}c3/2d/2{gef}e2{G}ea|  !
{fg}fa{ef}e2{gcd}c{e}A|
{g}c3/2d/2{gef}e2{A}ea|
f3/4g/4a3/4f/4{gef}e2{A}ec|  !
{gde}d3/4c/4{g}B3/4{d}c/4{e}A2{g}B{g}c|
{gef}ec{ag}a3/2g/2{fg}f2|
{g}f3/4g/4a3/4f/4{gef}e3/2f/2{gcd}c{e}A|  !
{g}B3/2e/2{G}A2{GAG}A2:|
